assets/error-410-closed.svg

<svg xmlns="http://www.w3.org/2000/svg" width="248" height="160" viewBox="0 0 248 160">
  <defs>
    <linearGradient id="a" x1="50%" x2="50%" y1="0%" y2="99.984%">
      <stop stop-color="#68DAFF" stop-opacity="0" offset="0%"/>
      <stop stop-color="#FFFFFF" offset="47.96%"/>
      <stop stop-color="#68DAFF" stop-opacity="0" offset="100%"/>
    </linearGradient>
    <linearGradient id="b" x1="50%" x2="50%" y1="0%" y2="99.723%">
      <stop stop-color="#68DAFF" stop-opacity="0" offset="0%"/>
      <stop stop-color="#FFFFFF" offset="47.96%"/>
      <stop stop-color="#68DAFF" stop-opacity="0" offset="99.913%"/>
    </linearGradient>
  </defs>
  <g fill="none" fill-rule="evenodd">
    <polygon fill="url(#a)" fill-rule="nonzero" points="163 71.054 171 71.054 171 155.054 163 155.054" transform="rotate(45 167 113.054)"/>
    <polygon fill="url(#b)" fill-rule="nonzero" points="163 51 171 51 171 135 163 135" transform="rotate(45 167 93)"/>
    <polygon fill="url(#a)" fill-rule="nonzero" points="66 31.054 74 31.054 74 115.054 66 115.054" transform="rotate(45 70 73.054)"/>
    <polygon fill="#D8D5CD" fill-rule="nonzero" points="101.681 18.181 107.681 18.181 107.681 77.181 101.681 77.181" opacity=".9" transform="rotate(45 104.681 47.681)"/>
    <polygon fill="#D8D5CD" fill-rule="nonzero" points="139.981 18.181 145.981 18.181 145.981 77.181 139.981 77.181" opacity=".9" transform="scale(-1 1) rotate(45 0 -297.506)"/>
    <polygon fill="#EE5555" fill-rule="nonzero" points="72 62 176 62 176 114 72 114"/>
    <path fill="#FFFFFF" fill-opacity=".9" fill-rule="nonzero" d="M69,59 L179,59 L179,117 L69,117 L69,59 Z M72,62 L72,114 L176,114 L176,62 L72,62 Z"/>
    <path fill="#000000" fill-opacity=".2" fill-rule="nonzero" d="M72,62 L176,62 L176,114 L72,114 L72,62 Z M76,66 L76,110 L172,110 L172,66 L76,66 Z"/>
    <path fill="#FFFFFF" fill-rule="nonzero" d="M95.94,94.604 C94.9519951,94.604 94.0843371,94.4108353 93.337,94.0245 C92.5896629,93.6381647 92.0133354,93.0966701 91.608,92.4 C91.2026646,91.7033298 91,90.8990046 91,89.987 L91,85.598 C91,84.6859954 91.2026646,83.8816701 91.608,83.185 C92.0133354,82.4883299 92.5896629,81.9500019 93.337,81.57 C94.0843371,81.1899981 94.9519951,81 95.94,81 C96.9153382,81 97.7734963,81.1804982 98.5145,81.5415 C99.2555037,81.9025018 99.8318313,82.4154967 100.2435,83.0805 C100.655169,83.7455033 100.861,84.5149956 100.861,85.389 C100.861,85.5030006 100.759668,85.5726665 100.557,85.598 L98.524,85.731 L98.448,85.731 C98.2706658,85.731 98.182,85.6993337 98.182,85.636 L98.182,85.522 C98.182,84.8506633 97.9761687,84.3123354 97.5645,83.907 C97.1528313,83.5016646 96.6113367,83.299 95.94,83.299 C95.2559966,83.299 94.7081687,83.5016646 94.2965,83.907 C93.8848313,84.3123354 93.679,84.8506633 93.679,85.522 L93.679,90.101 C93.679,90.75967 93.8848313,91.2916646 94.2965,91.697 C94.7081687,92.1023354 95.2559966,92.305 95.94,92.305 C96.6113367,92.305 97.1528313,92.1023354 97.5645,91.697 C97.9761687,91.2916646 98.182,90.75967 98.182,90.101 C98.182,90.0376663 98.2104997,89.9838336 98.2675,89.9395 C98.3245003,89.8951664 98.4036662,89.8793333 98.505,89.892 L100.538,89.987 C100.753334,90.0123335 100.861,90.0439998 100.861,90.082 L100.861,90.177 C100.861,91.0510044 100.655169,91.8236633 100.2435,92.495 C99.8318313,93.1663367 99.2555037,93.6856648 98.5145,94.053 C97.7734963,94.4203352 96.9153382,94.604 95.94,94.604 L95.94,94.604 Z M103.441,94.452 C103.225666,94.452 103.118,94.3443344 103.118,94.129 L103.118,81.475 C103.118,81.2596656 103.225666,81.152 103.441,81.152 L105.474,81.152 C105.689334,81.152 105.797,81.2596656 105.797,81.475 L105.797,92.039 C105.797,92.1150004 105.835,92.153 105.911,92.153 L112.01,92.153 C112.225334,92.153 112.333,92.2606656 112.333,92.476 L112.333,94.129 C112.333,94.3443344 112.225334,94.452 112.01,94.452 L103.441,94.452 Z M118.865,94.661 C117.876995,94.661 117.00617,94.4583354 116.2525,94.053 C115.49883,93.6476646 114.913002,93.080837 114.495,92.3525 C114.076998,91.624163 113.868,90.7850048 113.868,89.835 L113.868,85.769 C113.868,84.831662 114.076998,84.0020036 114.495,83.28 C114.913002,82.5579964 115.49883,81.997502 116.2525,81.5985 C117.00617,81.199498 117.876995,81 118.865,81 C119.865672,81 120.74283,81.199498 121.4965,81.5985 C122.25017,81.997502 122.835998,82.5579964 123.254,83.28 C123.672002,84.0020036 123.881,84.831662 123.881,85.769 L123.881,89.835 C123.881,90.7850048 123.672002,91.6273297 123.254,92.362 C122.835998,93.0966703 122.25017,93.663498 121.4965,94.0625 C120.74283,94.461502 119.865672,94.661 118.865,94.661 Z M118.865,92.362 C119.56167,92.362 120.125331,92.1403356 120.556,91.697 C120.986669,91.2536645 121.202,90.6646703 121.202,89.93 L121.202,85.75 C121.202,85.0153297 120.989835,84.4231689 120.5655,83.9735 C120.141164,83.5238311 119.574337,83.299 118.865,83.299 C118.16833,83.299 117.607835,83.5238311 117.1835,83.9735 C116.759164,84.4231689 116.547,85.0153297 116.547,85.75 L116.547,89.93 C116.547,90.6646703 116.759164,91.2536645 117.1835,91.697 C117.607835,92.1403356 118.16833,92.362 118.865,92.362 L118.865,92.362 Z M130.736,94.604 C129.747995,94.604 128.880337,94.439335 128.133,94.11 C127.385663,93.780665 126.809335,93.3183363 126.404,92.723 C125.998665,92.1276637 125.796,91.431004 125.796,90.633 L125.796,90.31 C125.796,90.0946656 125.903666,89.987 126.119,89.987 L128.114,89.987 C128.329334,89.987 128.437,90.0693325 128.437,90.234 L128.437,90.5 C128.437,91.0066692 128.668164,91.4341649 129.1305,91.7825 C129.592836,92.1308351 130.197663,92.305 130.945,92.305 C131.616337,92.305 132.113498,92.1625014 132.4365,91.8775 C132.759502,91.5924986 132.921,91.2410021 132.921,90.823 C132.921,90.5189985 132.819668,90.262501 132.617,90.0535 C132.414332,89.844499 132.142002,89.6608341 131.8,89.5025 C131.457998,89.3441659 130.907004,89.1256681 130.147,88.847 C129.285662,88.5556652 128.56367,88.2580015 127.981,87.954 C127.39833,87.6499985 126.904335,87.2351693 126.499,86.7095 C126.093665,86.1838307 125.891,85.5346705 125.891,84.762 C125.891,84.0019962 126.087331,83.3370029 126.48,82.767 C126.872669,82.1969972 127.420497,81.7600015 128.1235,81.456 C128.826504,81.1519985 129.627662,81 130.527,81 C131.489672,81 132.350996,81.1709983 133.111,81.513 C133.871004,81.8550017 134.463165,82.3331636 134.8875,82.9475 C135.311836,83.5618364 135.524,84.2743293 135.524,85.085 L135.524,85.275 C135.524,85.4903344 135.416334,85.598 135.201,85.598 L133.206,85.598 C132.990666,85.598 132.883,85.5346673 132.883,85.408 L132.883,85.218 C132.883,84.6859973 132.664502,84.2331685 132.2275,83.8595 C131.790498,83.4858315 131.192004,83.299 130.432,83.299 C129.823997,83.299 129.355335,83.4256654 129.026,83.679 C128.696665,83.9323346 128.532,84.2806644 128.532,84.724 C128.532,85.0406682 128.626999,85.3066656 128.817,85.522 C129.007001,85.7373344 129.295165,85.9336658 129.6815,86.111 C130.067835,86.2883342 130.666329,86.5163319 131.477,86.795 C132.363671,87.124335 133.066664,87.4124988 133.586,87.6595 C134.105336,87.9065012 134.570831,88.2833308 134.9825,88.79 C135.394169,89.2966692 135.6,89.948996 135.6,90.747 C135.6,91.5196705 135.400502,92.1973304 135.0015,92.78 C134.602498,93.3626696 134.038837,93.8123318 133.3105,94.129 C132.582163,94.4456682 131.724005,94.604 130.736,94.604 L130.736,94.604 Z M147.015,83.128 C147.015,83.3433344 146.907334,83.451 146.692,83.451 L140.574,83.451 C140.498,83.451 140.46,83.4889996 140.46,83.565 L140.46,86.472 C140.46,86.5480004 140.498,86.586 140.574,86.586 L144.545,86.586 C144.760334,86.586 144.868,86.6936656 144.868,86.909 L144.868,88.562 C144.868,88.7773344 144.760334,88.885 144.545,88.885 L140.574,88.885 C140.498,88.885 140.46,88.9229996 140.46,88.999 L140.46,92.039 C140.46,92.1150004 140.498,92.153 140.574,92.153 L146.692,92.153 C146.907334,92.153 147.015,92.2606656 147.015,92.476 L147.015,94.129 C147.015,94.3443344 146.907334,94.452 146.692,94.452 L138.104,94.452 C137.888666,94.452 137.781,94.3443344 137.781,94.129 L137.781,81.475 C137.781,81.2596656 137.888666,81.152 138.104,81.152 L146.692,81.152 C146.907334,81.152 147.015,81.2596656 147.015,81.475 L147.015,83.128 Z M149.5,94.452 C149.284666,94.452 149.177,94.3443344 149.177,94.129 L149.177,81.475 C149.177,81.2596656 149.284666,81.152 149.5,81.152 L154.155,81.152 C155.105005,81.152 155.93783,81.3198317 156.6535,81.6555 C157.36917,81.9911683 157.923331,82.462997 158.316,83.071 C158.708669,83.679003 158.905,84.381996 158.905,85.18 L158.905,90.424 C158.905,91.222004 158.708669,91.924997 158.316,92.533 C157.923331,93.141003 157.36917,93.6128317 156.6535,93.9485 C155.93783,94.2841683 155.105005,94.452 154.155,94.452 L149.5,94.452 Z M151.856,92.039 C151.856,92.1150004 151.894,92.153 151.97,92.153 L154.25,92.153 C154.83267,92.153 155.304498,91.9566686 155.6655,91.564 C156.026502,91.1713314 156.213333,90.64567 156.226,89.987 L156.226,85.617 C156.226,84.95833 156.045502,84.4326686 155.6845,84.04 C155.323498,83.6473314 154.839003,83.451 154.231,83.451 L151.97,83.451 C151.894,83.451 151.856,83.4889996 151.856,83.565 L151.856,92.039 Z"/>
    <circle cx="124" cy="28" r="4" fill="#777788" fill-rule="nonzero"/>
  </g>
</svg>

<svg xmlns="http://www.w3.org/2000/svg" width="248" height="160" viewBox="0 0 248 160"><defs><linearGradient id="a" x1="50%" x2="50%" y1="0%" y2="99.984%"><stop stop-color="#68DAFF" stop-opacity="0" offset="0%"/><stop stop-color="#FFF" offset="47.96%"/><stop stop-color="#68DAFF" stop-opacity="0" offset="100%"/></linearGradient><linearGradient id="b" x1="50%" x2="50%" y1="0%" y2="99.723%"><stop stop-color="#68DAFF" stop-opacity="0" offset="0%"/><stop stop-color="#FFF" offset="47.96%"/><stop stop-color="#68DAFF" stop-opacity="0" offset="99.913%"/></linearGradient></defs><g fill="none"><path fill="url(#a)" transform="rotate(45 167 113.054)" d="M163 71.054h8v84h-8z"/><path fill="url(#b)" transform="rotate(45 167 93)" d="M163 51h8v84h-8z"/><path fill="url(#a)" transform="rotate(45 70 73.054)" d="M66 31.054h8v84h-8z"/><path fill="#D8D5CD" opacity=".9" d="M123.42 24.7l4.242 4.243-41.72 41.719-4.242-4.243z"/><path fill="#D8D5CD" opacity=".9" d="M124.243 24.7L120 28.943l41.72 41.719 4.242-4.243z"/><path fill="#E55" d="M72 62h104v52H72z"/><path fill="#FFF" fill-opacity=".9" d="M69 59h110v58H69V59zm3 3v52h104V62H72z"/><path fill="#000" fill-opacity=".2" d="M72 62h104v52H72V62zm4 4v44h96V66H76z"/><path fill="#FFF" d="M95.94 94.604c-.988 0-1.856-.193-2.603-.58a4.161 4.161 0 01-1.729-1.624c-.405-.697-.608-1.501-.608-2.413v-4.389c0-.912.203-1.716.608-2.413a4.1 4.1 0 011.729-1.615c.747-.38 1.615-.57 2.603-.57.975 0 1.833.18 2.575.541a4.087 4.087 0 011.728 1.54c.412.665.618 1.434.618 2.308 0 .114-.101.184-.304.209l-2.033.133h-.076c-.177 0-.266-.032-.266-.095v-.114c0-.671-.206-1.21-.618-1.615-.411-.405-.953-.608-1.624-.608-.684 0-1.232.203-1.644.608-.411.405-.617.944-.617 1.615v4.579c0 .659.206 1.19.617 1.596.412.405.96.608 1.644.608.671 0 1.213-.203 1.624-.608.412-.405.618-.937.618-1.596a.2.2 0 01.085-.162c.058-.044.137-.06.238-.047l2.033.095c.215.025.323.057.323.095v.095c0 .874-.206 1.647-.618 2.318a4.129 4.129 0 01-1.728 1.558c-.742.367-1.6.551-2.575.551zm7.501-.152c-.215 0-.323-.108-.323-.323V81.475c0-.215.108-.323.323-.323h2.033c.215 0 .323.108.323.323v10.564c0 .076.038.114.114.114h6.099c.215 0 .323.108.323.323v1.653c0 .215-.108.323-.323.323h-8.569zm15.424.209c-.988 0-1.859-.203-2.612-.608a4.37 4.37 0 01-1.758-1.7c-.418-.729-.627-1.568-.627-2.518v-4.066c0-.937.209-1.767.627-2.489a4.324 4.324 0 011.757-1.681c.754-.4 1.625-.599 2.613-.599 1 0 1.878.2 2.632.599a4.326 4.326 0 011.757 1.681c.418.722.627 1.552.627 2.489v4.066c0 .95-.209 1.792-.627 2.527a4.289 4.289 0 01-1.758 1.7c-.753.4-1.63.599-2.631.599zm0-2.299c.697 0 1.26-.222 1.691-.665.43-.443.646-1.032.646-1.767v-4.18c0-.735-.212-1.327-.636-1.776-.425-.45-.992-.675-1.701-.675-.697 0-1.257.225-1.681.674-.425.45-.637 1.042-.637 1.777v4.18c0 .735.212 1.324.636 1.767.425.443.985.665 1.682.665zm11.871 2.242c-.988 0-1.856-.165-2.603-.494-.747-.33-1.324-.792-1.729-1.387s-.608-1.292-.608-2.09v-.323c0-.215.108-.323.323-.323h1.995c.215 0 .323.082.323.247v.266c0 .507.231.934.694 1.282.462.349 1.067.523 1.814.523.671 0 1.168-.142 1.492-.428a1.35 1.35 0 00.484-1.054c0-.304-.101-.56-.304-.77a2.71 2.71 0 00-.817-.55 24.138 24.138 0 00-1.653-.656c-.861-.291-1.583-.589-2.166-.893a4.452 4.452 0 01-1.482-1.244c-.405-.526-.608-1.175-.608-1.948 0-.76.196-1.425.589-1.995.393-.57.94-1.007 1.644-1.311.703-.304 1.504-.456 2.403-.456.963 0 1.824.171 2.584.513.76.342 1.352.82 1.776 1.434.425.615.637 1.327.637 2.138v.19c0 .215-.108.323-.323.323h-1.995c-.215 0-.323-.063-.323-.19v-.19c0-.532-.218-.985-.656-1.359-.437-.373-1.035-.56-1.795-.56-.608 0-1.077.127-1.406.38-.33.253-.494.602-.494 1.045 0 .317.095.583.285.798.19.215.478.412.864.589.387.177.985.405 1.796.684.887.33 1.59.617 2.109.864.52.248.985.624 1.396 1.131.412.507.618 1.159.618 1.957 0 .773-.2 1.45-.599 2.033-.399.583-.962 1.032-1.69 1.349-.729.317-1.587.475-2.575.475zm16.279-11.476c0 .215-.108.323-.323.323h-6.118c-.076 0-.114.038-.114.114v2.907c0 .076.038.114.114.114h3.971c.215 0 .323.108.323.323v1.653c0 .215-.108.323-.323.323h-3.971c-.076 0-.114.038-.114.114v3.04c0 .076.038.114.114.114h6.118c.215 0 .323.108.323.323v1.653c0 .215-.108.323-.323.323h-8.588c-.215 0-.323-.108-.323-.323V81.475c0-.215.108-.323.323-.323h8.588c.215 0 .323.108.323.323v1.653zm2.485 11.324c-.215 0-.323-.108-.323-.323V81.475c0-.215.108-.323.323-.323h4.655c.95 0 1.783.168 2.499.504.715.335 1.27.807 1.662 1.415.393.608.589 1.311.589 2.109v5.244c0 .798-.196 1.501-.589 2.109-.393.608-.947 1.08-1.662 1.415-.716.336-1.549.504-2.499.504H149.5zm2.356-2.413c0 .076.038.114.114.114h2.28c.583 0 1.054-.196 1.416-.589.36-.393.547-.918.56-1.577v-4.37c0-.659-.18-1.184-.541-1.577-.362-.393-.846-.589-1.454-.589h-2.261c-.076 0-.114.038-.114.114v8.474z"/><circle cx="124" cy="28" r="4" fill="#778"/></g></svg>
